X: 8793
T: Cuckoo's Nest, The
R: barndance
M: 4/4
K: Adorian
|:cdcB A2 g2|~e2dc d2 ~d2|cBAB GABd|1 ~c2 A2 A2B2:|2 ~c2 A2 A2 e2||
|:a2 a2 a2 b2|a3g e3f|g2 g2 g2 ag|fgfe d2B2|
cdcB A2g2|~e2dc d2 ~d2|cBAB GABd|1 ~c2 A2 A2 e2:|2 ~c2 A2 A2B2||

